package/converter/svg/regular/sd-card.svg

<svg xmlns="http://www.w3.org/2000/svg" viewBox="0 0 384 512"><!-- Font Awesome Pro 6.0.0-alpha2 by @fontawesome - https://fontawesome.com License - https://fontawesome.com/license (Commercial License) --><path d="M320 0H141.254C132.768 0 124.629 3.371 118.627 9.373L9.373 118.627C3.371 124.629 0 132.768 0 141.254V448C0 483.199 28.801 512 64 512H320C355.199 512 384 483.199 384 448V64C384 28.799 355.199 0 320 0ZM336 448C336 456.75 328.75 464 320 464H64C55.25 464 48 456.75 48 448V147.875L147.875 48H320C328.75 48 336 55.25 336 64V448ZM288 80C279.164 80 272 87.162 272 96V160C272 168.836 279.164 176 288 176S304 168.836 304 160V96C304 87.162 296.836 80 288 80ZM224 80C215.164 80 208 87.162 208 96V160C208 168.836 215.164 176 224 176S240 168.836 240 160V96C240 87.162 232.836 80 224 80ZM160 80C151.164 80 144 87.162 144 96V160C144 168.836 151.164 176 160 176S176 168.836 176 160V96C176 87.162 168.836 80 160 80Z"/></svg>

<svg xmlns="http://www.w3.org/2000/svg" viewBox="0 0 384 512"><!--! Font Awesome Pro 6.6.0 by @fontawesome - https://fontawesome.com License - https://fontawesome.com/license (Commercial License) Copyright 2024 Fonticons, Inc. --><path d="M336 64l0 384c0 8.8-7.2 16-16 16L64 464c-8.8 0-16-7.2-16-16l0-293.5c0-4.2 1.7-8.3 4.7-11.3l90.5-90.5c3-3 7.1-4.7 11.3-4.7L320 48c8.8 0 16 7.2 16 16zm48 384l0-384c0-35.3-28.7-64-64-64L154.5 0c-17 0-33.3 6.7-45.3 18.7L18.7 109.3C6.7 121.3 0 137.5 0 154.5L0 448c0 35.3 28.7 64 64 64l256 0c35.3 0 64-28.7 64-64zM176 96c0-8.8-7.2-16-16-16s-16 7.2-16 16l0 64c0 8.8 7.2 16 16 16s16-7.2 16-16l0-64zm64 0c0-8.8-7.2-16-16-16s-16 7.2-16 16l0 64c0 8.8 7.2 16 16 16s16-7.2 16-16l0-64zm64 0c0-8.8-7.2-16-16-16s-16 7.2-16 16l0 64c0 8.8 7.2 16 16 16s16-7.2 16-16l0-64z"/></svg>
